X:1
T:Title
%%score { 1 | ( 2 3 ) }
L:1/8
M:6/8
K:G
V:1 treble nm="Grand Piano"
V:2 treble 
V:3 treble 
V:1
 z3 z2[Q:1/4=100] G/A/ | B2 _B =B2 _B | B3 G2 B | d2 B [FA][GB][Ac] | [GB]3- [GB]2 [GB] | %5
 [Fd]2 [Fc] [FA]2 [FA] | c2 B G2 G | [EA]2 E F2 D |[M:5/8] G-G- G3 |[M:1/8] F/G/ | %10
[M:3/4] [FA]2 [FA] [GB]2 [FA] | [FA][Fd]- [Fd]3 [FA] | [E^c]2 [GB] [FA]2 [EG] | %13
 [DF]4- [DF][DF]/[EG]/ | [FA]2 [FA] [Fd]2 [Fd] | d3 B2 B | A2 D [A,DF]2[K:bass] [G,^CE] | %17
[M:3/8] [F,D]3 | [DFc]3 |[M:3/4] B2 _B =B2 _B | B3 G2 B | d2 B[FA] [GB][Ac] | B4- BB | d2 BB AG | %24
 E3 [Ec]2 [EA] | G2 F B2 [DA] |[M:5/8] [DG]-[DG]- [DG]3 |] %27
V:2
 z3 z2 [G,D]/-[G,CD]/ | [G,DG]2 [G,^CG] [G,DG]2 [G,CG] | [G,DG]3 [G,B,D]2 [G,DG] | %3
 [G,B,G]2 [G,DG][K:bass] [D,D]2 [D,D] | [G,D]3- [G,D]2 [G,D] | [D,D]2 [D,D] [D,D]2 [D,D] | %6
 [G,D]3 [G,B,D]2 [G,B,D] | [C,C]2 [C,A,] [D,CD]2 [D,C] |[M:5/8] [G,B,D]-[G,B,D]- [G,B,D]3 | %9
[M:1/8] D/E/ |[M:3/4] [D,D]2 [D,D] [D,D]2 [D,D] | [D,D][D,A,]- [D,A,]3 [D,A,] | %12
 [A,,A,]2 [A,,A,] [A,,A,]2 [A,,A,] | [D,A,]4- [D,A,][D,A,] | [D,D]2 [D,D] [D,C]2 [D,C] | %15
 [G,B,G]3 [G,DG]2 [G,DG] | [A,DF]2[K:bass] [A,,F,] A,,2 A,, |[M:3/8] D,3 | D,3 | %19
[M:3/4][K:treble] [G,DG]2 [G,^CG] [G,DG]2 [G,CG] | [G,DG]3 [G,B,D]2 [G,DG] | %21
 [G,B,G]2 [G,DG][K:bass] [D,D]2 [D,D] | [G,DG]4- [G,DG][G,DG] | [G,B,G]2 [G,DG]D C[G,B,=F] | %24
 [C,C]3 [C,C]2 [C,C] | [D,B,D]2 [D,A,D] [D,D]2 [C,C] |[M:5/8] [G,B,]-[G,B,]- [G,B,]3 |] %27
V:3
 z3 z2 .B, | x6 | x6 | x3[K:bass] x3 | x6 | x6 | x6 | x6 |[M:5/8] x5 |[M:1/8] [D,A,] |[M:3/4] x6 | %11
 x6 | x6 | x6 | x6 | x6 | x2[K:bass] x4 |[M:3/8] x3 | x3 |[M:3/4][K:treble] x6 | x6 | %21
 x3[K:bass] x3 | x6 | z2 z .[G,=F]3 | x6 | x6 |[M:5/8] x5 |] %27

